icons/Rainbow.svg

<svg width="24" height="24" viewBox="0 0 24 24" fill="none" xmlns="http://www.w3.org/2000/svg">
<path fill-rule="evenodd" clip-rule="evenodd" d="M7.88615,7.0683c1.30425,-0.54024 2.70215,-0.8183 4.11385,-0.8183c1.4117,0 2.8096,0.27806 4.1138,0.81829c1.3043,0.54024 2.4894,1.33208 3.4876,2.33031c0.9982,0.9982 1.7901,2.1833 2.3303,3.4876c0.5402,1.3042 0.8183,2.7021 0.8183,4.1138c0,0.4142 -0.3358,0.75 -0.75,0.75c-0.4142,0 -0.75,-0.3358 -0.75,-0.75c0,-1.2147 -0.2393,-2.4176 -0.7041,-3.5398c-0.4649,-1.1223 -1.1462,-2.142 -2.0052,-3.0009c-0.8589,-0.85898 -1.8786,-1.54033 -3.0009,-2.00519c-1.1222,-0.46485 -2.3251,-0.70411 -3.5398,-0.70411c-1.2147,0 -2.41756,0.23926 -3.53982,0.70411c-1.12226,0.46486 -2.14198,1.14621 -3.00092,2.00519c-0.85894,0.8589 -1.54029,1.8786 -2.00515,3.0009c-0.46485,1.1222 -0.70411,2.3251 -0.70411,3.5398c0,0.4142 -0.33579,0.75 -0.75,0.75c-0.41421,0 -0.75,-0.3358 -0.75,-0.75c0,-1.4117 0.27806,-2.8096 0.81829,-4.1138c0.54024,-1.3043 1.33208,-2.4894 2.33031,-3.4876c0.99823,-0.99823 2.1833,-1.79007 3.48755,-2.3303zM9.41689,10.7638c0.81891,-0.3392 1.69671,-0.5138 2.58311,-0.5138c0.8864,0 1.7642,0.1746 2.5831,0.5138c0.819,0.3392 1.5631,0.8364 2.1899,1.4632c0.6268,0.6268 1.124,1.3709 1.4632,2.1899c0.3392,0.8189 0.5138,1.6967 0.5138,2.5831c0,0.4142 -0.3358,0.75 -0.75,0.75c-0.4142,0 -0.75,-0.3358 -0.75,-0.75c0,-0.6894 -0.1358,-1.3721 -0.3996,-2.0091c-0.2639,-0.6369 -0.6506,-1.2157 -1.1381,-1.7032c-0.4875,-0.4875 -1.0663,-0.8742 -1.7032,-1.1381c-0.637,-0.2638 -1.3197,-0.3996 -2.0091,-0.3996c-0.6894,0 -1.3721,0.1358 -2.00909,0.3996c-0.63696,0.2639 -1.21571,0.6506 -1.70322,1.1381c-0.48751,0.4875 -0.87422,1.0663 -1.13806,1.7032c-0.26383,0.637 -0.39963,1.3197 -0.39963,2.0091c0,0.4142 -0.33579,0.75 -0.75,0.75c-0.41421,0 -0.75,-0.3358 -0.75,-0.75c0,-0.8864 0.17459,-1.7642 0.51381,-2.5831c0.33922,-0.819 0.83642,-1.5631 1.46322,-2.1899c0.62679,-0.6268 1.37091,-1.124 2.18986,-1.4632zM13.0524,14.4593c0.3336,0.1382 0.6368,0.3408 0.8921,0.5962c0.2554,0.2553 0.458,0.5585 0.5962,0.8921c0.1382,0.3337 0.2093,0.6913 0.2093,1.0524c0,0.4142 -0.3358,0.75 -0.75,0.75c-0.4142,0 -0.75,-0.3358 -0.75,-0.75c0,-0.1642 -0.0323,-0.3267 -0.0951,-0.4784c-0.0629,-0.1516 -0.1549,-0.2894 -0.271,-0.4055c-0.1161,-0.1161 -0.2539,-0.2081 -0.4055,-0.2709c-0.1517,-0.0629 -0.3142,-0.0952 -0.4784,-0.0952c-0.1642,0 -0.3267,0.0323 -0.4784,0.0952c-0.1516,0.0628 -0.2894,0.1548 -0.4055,0.2709c-0.1161,0.1161 -0.2081,0.2539 -0.2709,0.4055c-0.0629,0.1517 -0.0952,0.3142 -0.0952,0.4784c0,0.4142 -0.3358,0.75 -0.75,0.75c-0.41421,0 -0.75,-0.3358 -0.75,-0.75c0,-0.3611 0.07113,-0.7187 0.20933,-1.0524c0.1382,-0.3336 0.34077,-0.6368 0.59617,-0.8921c0.2553,-0.2554 0.5585,-0.458 0.8921,-0.5962c0.3337,-0.1382 0.6913,-0.2093 1.0524,-0.2093c0.3611,0 0.7187,0.0711 1.0524,0.2093z" fill="#002B51"/>
</svg>

<svg width="24" height="24" viewBox="0 0 24 24" fill="none" xmlns="http://www.w3.org/2000/svg">
<path fill-rule="evenodd" clip-rule="evenodd" d="M7.88615 7.0683C9.1904 6.52806 10.5883 6.25 12 6.25C13.4117 6.25 14.8096 6.52806 16.1138 7.06829C17.4181 7.60853 18.6032 8.40037 19.6014 9.3986C20.5996 10.3968 21.3915 11.5819 21.9317 12.8862C22.4719 14.1904 22.75 15.5883 22.75 17C22.75 17.4142 22.4142 17.75 22 17.75C21.5858 17.75 21.25 17.4142 21.25 17C21.25 15.7853 21.0107 14.5824 20.5459 13.4602C20.081 12.3379 19.3997 11.3182 18.5407 10.4593C17.6818 9.60032 16.6621 8.91897 15.5398 8.45411C14.4176 7.98926 13.2147 7.75 12 7.75C10.7853 7.75 9.58244 7.98926 8.46018 8.45411C7.33792 8.91897 6.3182 9.60032 5.45926 10.4593C4.60032 11.3182 3.91897 12.3379 3.45411 13.4602C2.98926 14.5824 2.75 15.7853 2.75 17C2.75 17.4142 2.41421 17.75 2 17.75C1.58579 17.75 1.25 17.4142 1.25 17C1.25 15.5883 1.52806 14.1904 2.06829 12.8862C2.60853 11.5819 3.40037 10.3968 4.3986 9.3986C5.39683 8.40037 6.5819 7.60853 7.88615 7.0683ZM9.41689 10.7638C10.2358 10.4246 11.1136 10.25 12 10.25C12.8864 10.25 13.7642 10.4246 14.5831 10.7638C15.4021 11.103 16.1462 11.6002 16.773 12.227C17.3998 12.8538 17.897 13.5979 18.2362 14.4169C18.5754 15.2358 18.75 16.1136 18.75 17C18.75 17.4142 18.4142 17.75 18 17.75C17.5858 17.75 17.25 17.4142 17.25 17C17.25 16.3106 17.1142 15.6279 16.8504 14.9909C16.5865 14.354 16.1998 13.7752 15.7123 13.2877C15.2248 12.8002 14.646 12.4135 14.0091 12.1496C13.3721 11.8858 12.6894 11.75 12 11.75C11.3106 11.75 10.6279 11.8858 9.99091 12.1496C9.35395 12.4135 8.7752 12.8002 8.28769 13.2877C7.80018 13.7752 7.41347 14.354 7.14963 14.9909C6.8858 15.6279 6.75 16.3106 6.75 17C6.75 17.4142 6.41421 17.75 6 17.75C5.58579 17.75 5.25 17.4142 5.25 17C5.25 16.1136 5.42459 15.2358 5.76381 14.4169C6.10303 13.5979 6.60023 12.8538 7.22703 12.227C7.85382 11.6002 8.59794 11.103 9.41689 10.7638ZM12 14.25C11.6389 14.25 11.2813 14.3211 10.9476 14.4593C10.614 14.5975 10.3108 14.8001 10.0555 15.0555C9.8001 15.3108 9.59753 15.614 9.45933 15.9476C9.32113 16.2813 9.25 16.6389 9.25 17C9.25 17.4142 9.58579 17.75 10 17.75C10.4142 17.75 10.75 17.4142 10.75 17C10.75 16.8358 10.7823 16.6733 10.8452 16.5216C10.908 16.37 11 16.2322 11.1161 16.1161C11.2322 16 11.37 15.908 11.5216 15.8452C11.6733 15.7823 11.8358 15.75 12 15.75C12.1642 15.75 12.3267 15.7823 12.4784 15.8452C12.63 15.908 12.7678 16 12.8839 16.1161C13 16.2322 13.092 16.37 13.1549 16.5216C13.2177 16.6733 13.25 16.8358 13.25 17C13.25 17.4142 13.5858 17.75 14 17.75C14.4142 17.75 14.75 17.4142 14.75 17C14.75 16.6389 14.6789 16.2813 14.5407 15.9476C14.4025 15.614 14.1999 15.3108 13.9445 15.0555C13.6892 14.8001 13.386 14.5975 13.0524 14.4593C12.7187 14.3211 12.3611 14.25 12 14.25Z" fill="#002B51"/>
</svg>
